assets/skin-mi-wbc/images/settings.svg

<?xml version="1.0" encoding="utf-8"?>
<!-- Generator: Adobe Illustrator 21.0.0, SVG Export Plug-In . SVG Version: 6.00 Build 0)  -->
<svg version="1.1" id="Layer_1" xmlns="http://www.w3.org/2000/svg" xmlns:xlink="http://www.w3.org/1999/xlink" x="0px" y="0px"
	 viewBox="0 0 32 32" style="enable-background:new 0 0 32 32;" xml:space="preserve">
<style type="text/css">
	.st0{fill:#FFFFFF;}
</style>
<g id="Shape_4">
	<g>
		<path class="st0" d="M25.6,13.8l-1.4-0.3c-0.2-0.5-0.4-1-0.6-1.4l0.9-1.3c0.4-0.5,0.3-1.3-0.1-1.7L23,7.7c-0.3-0.3-0.6-0.4-1-0.4
			c-0.3,0-0.6,0.1-0.8,0.3L20,8.5c-0.5-0.3-1-0.5-1.5-0.6l-0.3-1.4c0-0.6-0.6-1.1-1.3-1.1H15c-0.7,0-1.2,0.5-1.3,1.1L13.5,8
			c-0.5,0.2-1,0.4-1.4,0.6l-1.3-0.9c-0.2-0.2-0.5-0.3-0.8-0.3c-0.4,0-0.7,0.1-1,0.4L7.8,9.1c-0.5,0.5-0.5,1.2-0.1,1.7l0.9,1.3
			c-0.3,0.5-0.5,1-0.6,1.4l-1.4,0.3c-0.7,0-1.2,0.6-1.2,1.3V17c0,0.7,0.5,1.2,1.1,1.3L8,18.5c0.2,0.5,0.4,1,0.6,1.4l-0.9,1.3
			c-0.4,0.5-0.3,1.3,0.1,1.7l1.4,1.4c0.3,0.3,0.6,0.4,1,0.4c0.3,0,0.6-0.1,0.8-0.3l1.3-0.9c0.5,0.2,1,0.4,1.4,0.6l0.3,1.4
			c0.1,0.7,0.7,1.1,1.3,1.1H17c0.7,0,1.2-0.5,1.3-1.1l0.3-1.4c0.5-0.2,1-0.4,1.4-0.6l1.3,0.9c0.2,0.2,0.5,0.3,0.8,0.3
			c0.4,0,0.7-0.1,1-0.4l1.4-1.4c0.5-0.5,0.5-1.2,0.1-1.7L23.5,20c0.3-0.5,0.5-1,0.6-1.4l1.4-0.3c0.7-0.1,1.1-0.7,1.1-1.3V15
			C26.6,14.5,26.1,13.9,25.6,13.8z M24.6,16.9L24.6,16.9C24.6,17,24.6,17,24.6,16.9l-1.8,0.4c-0.2,0-0.4,0.2-0.4,0.4
			c-0.2,0.6-0.4,1.2-0.7,1.6c-0.1,0.2-0.1,0.4,0,0.6l1,1.4v0.1l-1.2,1.2h-0.1c0,0,0,0-0.1,0l-1.4-1c-0.2-0.1-0.4-0.1-0.6,0
			c-0.5,0.3-1.1,0.6-1.6,0.7c-0.2,0.1-0.4,0.2-0.4,0.4L17,24.5c0,0.1-0.1,0.1-0.1,0.1h-1.7c-0.1,0-0.1,0-0.1-0.1l-0.3-1.7
			c0-0.2-0.2-0.4-0.4-0.4c-0.6-0.2-1.2-0.4-1.6-0.7c-0.1,0-0.2-0.1-0.3-0.1c-0.1,0-0.2,0-0.3,0.1l-1.4,1c0,0,0,0-0.1,0
			c0,0,0,0-0.1,0l-1.2-1.2v-0.1l1-1.4c0.1-0.2,0.1-0.4,0-0.6C10,19,9.7,18.4,9.6,17.8c-0.1-0.2-0.2-0.4-0.4-0.4L7.5,17
			c-0.1,0-0.1-0.1-0.1-0.1v-1.7c0-0.1,0-0.1,0.1-0.1l1.7-0.2c0.2,0,0.4-0.2,0.5-0.4c0.2-0.6,0.4-1.2,0.7-1.6c0.1-0.2,0.1-0.4,0-0.6
			l-1-1.4v-0.1l1.2-1.2h0.1c0,0,0,0,0.1,0l1.4,1c0.2,0.1,0.4,0.1,0.6,0c0.5-0.3,1.1-0.6,1.6-0.7c0.2-0.1,0.4-0.2,0.4-0.4L15,7.5
			c0-0.1,0.1-0.1,0.1-0.1h1.7c0.1,0,0.1,0,0.1,0.1l0.2,1.7c0,0.2,0.2,0.4,0.4,0.5c0.6,0.2,1.2,0.4,1.7,0.7c0.2,0.1,0.4,0.1,0.6,0
			l1.4-1c0,0,0,0,0.1,0c0,0,0,0,0.1,0l1.2,1.2v0.1l-1,1.4c-0.1,0.2-0.1,0.4,0,0.6c0.3,0.5,0.6,1.1,0.7,1.6c0.1,0.2,0.2,0.4,0.4,0.4
			l1.6,0.3c0.1,0,0.1,0.1,0.1,0.1v1.8H24.6z M16,11.5c-2.5,0-4.5,2-4.5,4.5s2,4.5,4.5,4.5s4.5-2,4.5-4.5S18.5,11.5,16,11.5z
			 M16,18.8c-1.5,0-2.8-1.3-2.8-2.8s1.3-2.8,2.8-2.8s2.8,1.3,2.8,2.8S17.5,18.8,16,18.8z"/>
	</g>
</g>
</svg>

<?xml version="1.0" encoding="UTF-8" standalone="no"?>
<!DOCTYPE svg PUBLIC "-//W3C//DTD SVG 1.1//EN" "http://www.w3.org/Graphics/SVG/1.1/DTD/svg11.dtd">
<svg width="100%" height="100%" viewBox="0 0 32 32" version="1.1" xmlns="http://www.w3.org/2000/svg" xmlns:xlink="http://www.w3.org/1999/xlink" xml:space="preserve" xmlns:serif="http://www.serif.com/" style="fill-rule:evenodd;clip-rule:evenodd;stroke-linejoin:round;stroke-miterlimit:1.41421;">
    <path id="Shape_4" d="M25.6,13.8L24.2,13.5C24,13 23.8,12.5 23.6,12.1L24.5,10.8C24.9,10.3 24.8,9.5 24.4,9.1L23,7.7C22.7,7.4 22.4,7.3 22,7.3C21.7,7.3 21.4,7.4 21.2,7.6L20,8.5C19.5,8.2 19,8 18.5,7.9L18.2,6.5C18.2,5.9 17.6,5.4 16.9,5.4L15,5.4C14.3,5.4 13.8,5.9 13.7,6.5L13.5,8C13,8.2 12.5,8.4 12.1,8.6L10.8,7.7C10.6,7.5 10.3,7.4 10,7.4C9.6,7.4 9.3,7.5 9,7.8L7.8,9.1C7.3,9.6 7.3,10.3 7.7,10.8L8.6,12.1C8.3,12.6 8.1,13.1 8,13.5L6.6,13.8C5.9,13.8 5.4,14.4 5.4,15.1L5.4,17C5.4,17.7 5.9,18.2 6.5,18.3L8,18.5C8.2,19 8.4,19.5 8.6,19.9L7.7,21.2C7.3,21.7 7.4,22.5 7.8,22.9L9.2,24.3C9.5,24.6 9.8,24.7 10.2,24.7C10.5,24.7 10.8,24.6 11,24.4L12.3,23.5C12.8,23.7 13.3,23.9 13.7,24.1L14,25.5C14.1,26.2 14.7,26.6 15.3,26.6L17,26.6C17.7,26.6 18.2,26.1 18.3,25.5L18.6,24.1C19.1,23.9 19.6,23.7 20,23.5L21.3,24.4C21.5,24.6 21.8,24.7 22.1,24.7C22.5,24.7 22.8,24.6 23.1,24.3L24.5,22.9C25,22.4 25,21.7 24.6,21.2L23.5,20C23.8,19.5 24,19 24.1,18.6L25.5,18.3C26.2,18.2 26.6,17.6 26.6,17L26.6,15C26.6,14.5 26.1,13.9 25.6,13.8ZM24.6,16.9C24.6,17 24.6,17 24.6,16.9L22.8,17.3C22.6,17.3 22.4,17.5 22.4,17.7C22.2,18.3 22,18.9 21.7,19.3C21.6,19.5 21.6,19.7 21.7,19.9L22.7,21.3L22.7,21.4L21.5,22.6L21.4,22.6L21.3,22.6L19.9,21.6C19.7,21.5 19.5,21.5 19.3,21.6C18.8,21.9 18.2,22.2 17.7,22.3C17.5,22.4 17.3,22.5 17.3,22.7L17,24.5C17,24.6 16.9,24.6 16.9,24.6L15.2,24.6C15.1,24.6 15.1,24.6 15.1,24.5L14.8,22.8C14.8,22.6 14.6,22.4 14.4,22.4C13.8,22.2 13.2,22 12.8,21.7C12.7,21.7 12.6,21.6 12.5,21.6C12.4,21.6 12.3,21.6 12.2,21.7L10.8,22.7L10.7,22.7L10.6,22.7L9.4,21.5L9.4,21.4L10.4,20C10.5,19.8 10.5,19.6 10.4,19.4C10,19 9.7,18.4 9.6,17.8C9.5,17.6 9.4,17.4 9.2,17.4L7.5,17C7.4,17 7.4,16.9 7.4,16.9L7.4,15.2C7.4,15.1 7.4,15.1 7.5,15.1L9.2,14.9C9.4,14.9 9.6,14.7 9.7,14.5C9.9,13.9 10.1,13.3 10.4,12.9C10.5,12.7 10.5,12.5 10.4,12.3L9.4,10.9L9.4,10.8L10.6,9.6L10.8,9.6L12.2,10.6C12.4,10.7 12.6,10.7 12.8,10.6C13.3,10.3 13.9,10 14.4,9.9C14.6,9.8 14.8,9.7 14.8,9.5L15,7.5C15,7.4 15.1,7.4 15.1,7.4L16.8,7.4C16.9,7.4 16.9,7.4 16.9,7.5L17.1,9.2C17.1,9.4 17.3,9.6 17.5,9.7C18.1,9.9 18.7,10.1 19.2,10.4C19.4,10.5 19.6,10.5 19.8,10.4L21.2,9.4L21.4,9.4L22.6,10.6L22.6,10.7L21.6,12.1C21.5,12.3 21.5,12.5 21.6,12.7C21.9,13.2 22.2,13.8 22.3,14.3C22.4,14.5 22.5,14.7 22.7,14.7L24.3,15C24.4,15 24.4,15.1 24.4,15.1L24.4,16.9L24.6,16.9ZM16,11.5C13.5,11.5 11.5,13.5 11.5,16C11.5,18.5 13.5,20.5 16,20.5C18.5,20.5 20.5,18.5 20.5,16C20.5,13.5 18.5,11.5 16,11.5ZM16,18.8C14.5,18.8 13.2,17.5 13.2,16C13.2,14.5 14.5,13.2 16,13.2C17.5,13.2 18.8,14.5 18.8,16C18.8,17.5 17.5,18.8 16,18.8Z" style="fill:white;fill-rule:nonzero;stroke:black;stroke-opacity:0.541176;stroke-width:0.5px;"/>
</svg>
